octagram-minus.svg

<svg fill="currentColor" viewBox="0 0 24 24"><path d="M2.2 16.06 3.88 12 2.2 7.94l4.06-1.68L7.94 2.2 12 3.88l4.06-1.68 1.68 4.06 4.06 1.68L20.12 12l.51 1.22c-.52-.14-1.07-.22-1.63-.22-3.31 0-6 2.69-6 6 0 .56.08 1.11.22 1.63L12 20.12 7.94 21.8l-1.68-4.06zM15 20v-2h8v2z"/></svg>

<svg  viewBox="0 0 24 24" fill="currentColor"><path  d="M2.2 16.06L3.88 12L2.2 7.94L6.26 6.26L7.94 2.2L12 3.88L16.06 2.2L17.74 6.26L21.8 7.94L20.12 12L20.63 13.22C20.11 13.08 19.56 13 19 13C15.69 13 13 15.69 13 19C13 19.56 13.08 20.11 13.22 20.63L12 20.12L7.94 21.8L6.26 17.74L2.2 16.06M15 20V18H23V20H15Z"/></svg>
